ImageProcessor/LUTFiles/PRESET_Fujicolor_SuperHR100.cube
#Created by: Pixelmator Pro
#Color profile: "sRGB IEC61966-2.1"
TITLE "PRESET_Fujicolor_SuperHR100"
#Data domain
DOMAIN_MIN 0.000 0.000 0.000
DOMAIN_MAX 1.000 1.000 1.000
#LUT size
LUT_3D_SIZE 35
0.066 0.099 0.098
0.066 0.099 0.098
0.066 0.099 0.098
0.066 0.099 0.098
0.066 0.099 0.098
0.066 0.099 0.098
0.066 0.099 0.098
0.066 0.099 0.098
0.099 0.099 0.105
0.158 0.099 0.119
0.214 0.099 0.134
0.264 0.099 0.151
0.309 0.099 0.167
0.352 0.099 0.185
0.392 0.099 0.202
0.432 0.099 0.219
0.471 0.099 0.236
0.509 0.099 0.253
0.548 0.099 0.270
0.587 0.099 0.287
0.626 0.099 0.304
0.664 0.099 0.321
0.702 0.099 0.338
0.740 0.099 0.356
0.777 0.099 0.375
0.813 0.099 0.395
0.849 0.099 0.417
0.884 0.099 0.440
0.918 0.099 0.467
0.952 0.099 0.497
0.985 0.099 0.533
1.000 0.099 0.575
1.000 0.099 0.629
1.000 0.099 0.699
1.000 0.099 0.797
0.066 0.099 0.098
0.066 0.099 0.098
0.066 0.099 0.098
0.066 0.099 0.098
0.066 0.099 0.098
0.066 0.099 0.098
0.066 0.099 0.098
0.113 0.099 0.103
0.168 0.099 0.112
0.219 0.099 0.124
0.266 0.099 0.137
0.310 0.099 0.152
0.350 0.099 0.168
0.389 0.099 0.184
0.428 0.099 0.201
0.465 0.099 0.218
0.503 0.099 0.234
0.540 0.099 0.251
0.577 0.099 0.268
0.614 0.099 0.285
0.651 0.099 0.301
0.687 0.099 0.318
0.723 0.099 0.336
0.759 0.099 0.354
0.794 0.099 0.373
0.828 0.099 0.393
0.862 0.099 0.415
0.895 0.099 0.439
0.928 0.099 0.465
0.960 0.099 0.496
0.991 0.099 0.531
1.000 0.099 0.574
1.000 0.099 0.628
1.000 0.099 0.699
1.000 0.099 0.797
0.066 0.099 0.098
0.066 0.099 0.098
0.066 0.099 0.098
0.066 0.099 0.098
0.066 0.099 0.098
0.095 0.104 0.098
0.138 0.106 0.098
0.191 0.103 0.098
0.240 0.099 0.103
0.280 0.099 0.115
0.319 0.099 0.128
0.357 0.099 0.144
0.393 0.099 0.160
0.430 0.099 0.177
0.466 0.099 0.194
0.502 0.099 0.211
0.537 0.099 0.228
0.573 0.099 0.246
0.608 0.099 0.263
0.643 0.099 0.280
0.677 0.099 0.297
0.712 0.099 0.314
0.745 0.099 0.332
0.778 0.099 0.350
0.811 0.099 0.370
0.843 0.099 0.390
0.875 0.099 0.412
0.906 0.099 0.436
0.937 0.099 0.463
0.967 0.099 0.494
0.997 0.099 0.529
1.000 0.099 0.572
1.000 0.099 0.626
1.000 0.099 0.698
1.000 0.099 0.796
0.066 0.099 0.098
0.066 0.099 0.098
0.066 0.099 0.098
0.070 0.110 0.098
0.092 0.124 0.098
0.130 0.134 0.098
0.188 0.135 0.098
0.232 0.133 0.098
0.278 0.127 0.098
0.327 0.116 0.098
0.379 0.099 0.099
0.409 0.099 0.118
0.441 0.099 0.138
0.475 0.099 0.158
0.508 0.099 0.177
0.542 0.099 0.197
0.575 0.099 0.216
0.608 0.099 0.234
0.641 0.099 0.253
0.674 0.099 0.271
0.706 0.099 0.289
0.737 0.099 0.307
0.769 0.099 0.326
0.799 0.099 0.345
0.830 0.099 0.364
0.860 0.099 0.385
0.889 0.099 0.408
0.918 0.099 0.432
0.947 0.099 0.459
0.976 0.099 0.491
0.999 0.099 0.527
1.000 0.099 0.570
1.000 0.099 0.625
1.000 0.099 0.697
1.000 0.099 0.796
0.066 0.099 0.098
0.067 0.106 0.098
0.069 0.126 0.098
0.073 0.148 0.098
0.095 0.165 0.098
0.136 0.174 0.098
0.186 0.181 0.098
0.246 0.180 0.098
0.305 0.170 0.098
0.348 0.162 0.098
0.394 0.149 0.098
0.443 0.131 0.098
0.495 0.108 0.098
0.530 0.099 0.118
0.558 0.099 0.143
0.588 0.099 0.168
0.618 0.099 0.191
0.648 0.099 0.213
0.678 0.099 0.235
0.708 0.099 0.255
0.737 0.099 0.276
0.765 0.099 0.296
0.794 0.099 0.316
0.822 0.099 0.336
0.850 0.099 0.357
0.877 0.099 0.378
0.904 0.099 0.402
0.931 0.099 0.427
0.958 0.099 0.455
0.984 0.099 0.487
1.000 0.099 0.523
1.000 0.099 0.567
1.000 0.099 0.623
1.000 0.099 0.695
1.000 0.099 0.795
0.070 0.131 0.098
0.072 0.147 0.098
0.075 0.165 0.098
0.079 0.185 0.098
0.084 0.208 0.098
0.123 0.220 0.098
0.179 0.226 0.098
0.235 0.230 0.098
0.295 0.229 0.098
0.364 0.215 0.098
0.411 0.203 0.098
0.455 0.190 0.098
0.503 0.172 0.098
0.553 0.149 0.098
0.593 0.133 0.112
0.630 0.118 0.130
0.663 0.108 0.152
0.693 0.099 0.175
0.719 0.099 0.203
0.745 0.099 0.229
0.771 0.099 0.253
0.796 0.099 0.277
0.822 0.099 0.299
0.847 0.099 0.322
0.871 0.099 0.345
0.896 0.099 0.368
0.921 0.099 0.393
0.945 0.099 0.419
0.969 0.099 0.448
0.994 0.099 0.481
1.000 0.099 0.519
1.000 0.099 0.564
1.000 0.099 0.620
1.000 0.099 0.694
1.000 0.099 0.795
0.076 0.176 0.098
0.078 0.191 0.098
0.082 0.207 0.098
0.086 0.225 0.098
0.094 0.243 0.103
0.105 0.262 0.109
0.155 0.274 0.098
0.220 0.277 0.098
0.279 0.279 0.098
0.339 0.277 0.098
0.406 0.266 0.098
0.471 0.248 0.098
0.515 0.234 0.098
0.561 0.218 0.098
0.606 0.199 0.103
0.643 0.184 0.118
0.680 0.168 0.134
0.715 0.150 0.151
0.744 0.139 0.176
0.772 0.128 0.200
0.800 0.117 0.224
0.827 0.106 0.248
0.852 0.099 0.273
0.873 0.099 0.300
0.895 0.099 0.327
0.917 0.099 0.353
0.938 0.099 0.380
0.960 0.099 0.408
0.982 0.099 0.439
1.000 0.099 0.473
1.000 0.099 0.512
1.000 0.099 0.559
1.000 0.099 0.616
1.000 0.099 0.691
1.000 0.099 0.793
0.083 0.221 0.098
0.086 0.235 0.098
0.089 0.249 0.098
0.099 0.262 0.106
0.110 0.276 0.114
0.121 0.293 0.122
0.133 0.312 0.130
0.189 0.325 0.100
0.259 0.326 0.098
0.320 0.327 0.098
0.380 0.324 0.098
0.446 0.316 0.098
0.522 0.296 0.098
0.572 0.281 0.098
0.616 0.266 0.098
0.655 0.251 0.107
0.690 0.237 0.124
0.724 0.222 0.141
0.757 0.206 0.159
0.788 0.188 0.178
0.815 0.174 0.203
0.840 0.162 0.229
0.864 0.150 0.255
0.888 0.138 0.281
0.912 0.125 0.307
0.936 0.111 0.333
0.958 0.099 0.361
0.977 0.099 0.392
0.996 0.099 0.426
1.000 0.099 0.462
1.000 0.099 0.503
1.000 0.099 0.552
1.000 0.099 0.611
1.000 0.099 0.688
1.000 0.099 0.792
0.091 0.266 0.098
0.095 0.277 0.100
0.105 0.287 0.108
0.115 0.298 0.117
0.127 0.310 0.126
0.139 0.324 0.136
0.152 0.341 0.145
0.165 0.360 0.153
0.226 0.371 0.115
0.296 0.374 0.098
0.358 0.373 0.098
0.418 0.370 0.098
0.483 0.363 0.098
0.554 0.348 0.098
0.626 0.326 0.098
0.667 0.313 0.098
0.702 0.300 0.113
0.734 0.288 0.131
0.765 0.275 0.150
0.795 0.260 0.169
0.824 0.244 0.189
0.852 0.226 0.209
0.876 0.211 0.235
0.898 0.198 0.263
0.920 0.184 0.291
0.942 0.171 0.319
0.964 0.157 0.348
0.985 0.142 0.379
1.000 0.125 0.412
1.000 0.099 0.447
1.000 0.099 0.491
1.000 0.099 0.542
1.000 0.099 0.605
1.000 0.099 0.684
1.000 0.099 0.790
0.103 0.308 0.102
0.112 0.315 0.111
0.122 0.324 0.120
0.133 0.333 0.129
0.145 0.343 0.140
0.157 0.356 0.150
0.171 0.370 0.161
0.184 0.387 0.171
0.197 0.406 0.179
0.263 0.417 0.133
0.331 0.421 0.098
0.393 0.418 0.098
0.454 0.415 0.098
0.517 0.409 0.098
0.586 0.397 0.098
0.660 0.378 0.098
0.714 0.358 0.100
0.745 0.347 0.119
0.774 0.336 0.139
0.803 0.323 0.159
0.831 0.310 0.180
0.857 0.296 0.201
0.883 0.279 0.223
0.908 0.260 0.245
0.930 0.245 0.273
0.949 0.231 0.304
0.969 0.217 0.334
0.990 0.203 0.367
1.000 0.187 0.401
1.000 0.157 0.437
1.000 0.114 0.477
1.000 0.099 0.530
1.000 0.099 0.596
1.000 0.099 0.679
1.000 0.099 0.787
0.122 0.345 0.115
0.131 0.351 0.124
0.141 0.359 0.133
0.152 0.367 0.143
0.164 0.376 0.154
0.176 0.387 0.165
0.189 0.400 0.176
0.202 0.414 0.188
0.216 0.432 0.198
0.230 0.451 0.205
0.297 0.461 0.154
0.364 0.466 0.106
0.427 0.464 0.098
0.488 0.460 0.098
0.550 0.454 0.098
0.616 0.444 0.098
0.685 0.428 0.098
0.755 0.403 0.105
0.784 0.392 0.127
0.811 0.381 0.148
0.837 0.369 0.170
0.863 0.356 0.192
0.888 0.342 0.215
0.911 0.327 0.238
0.935 0.309 0.261
0.957 0.289 0.286
0.976 0.275 0.319
0.995 0.260 0.353
1.000 0.243 0.388
1.000 0.214 0.424
1.000 0.176 0.466
1.000 0.120 0.516
1.000 0.099 0.584
1.000 0.099 0.671
1.000 0.138 0.784
0.142 0.380 0.129
0.151 0.386 0.138
0.161 0.393 0.148
0.172 0.400 0.158
0.183 0.409 0.169
0.195 0.418 0.180
0.207 0.430 0.192
0.221 0.443 0.204
0.234 0.458 0.216
0.247 0.476 0.226
0.266 0.495 0.227
0.331 0.504 0.176
0.395 0.510 0.126
0.460 0.509 0.098
0.521 0.504 0.098
0.582 0.498 0.098
0.646 0.489 0.098
0.711 0.476 0.098
0.778 0.456 0.099
0.820 0.435 0.136
0.845 0.424 0.159
0.869 0.412 0.183
0.893 0.399 0.206
0.916 0.385 0.230
0.938 0.370 0.255
0.960 0.352 0.280
0.981 0.333 0.306
0.999 0.314 0.338
1.000 0.293 0.372
1.000 0.267 0.410
1.000 0.234 0.453
1.000 0.185 0.505
1.000 0.108 0.570
1.000 0.099 0.662
1.000 0.172 0.779
0.162 0.414 0.144
0.172 0.420 0.154
0.181 0.426 0.163
0.191 0.433 0.173
0.202 0.440 0.184
0.213 0.449 0.196
0.225 0.460 0.208
0.238 0.472 0.220
0.251 0.486 0.232
0.264 0.502 0.243
0.277 0.520 0.253
0.301 0.538 0.248
0.363 0.546 0.199
0.426 0.552 0.149
0.491 0.554 0.105
0.553 0.549 0.098
0.614 0.542 0.098
0.675 0.534 0.098
0.737 0.522 0.098
0.800 0.504 0.098
0.851 0.479 0.146
0.876 0.465 0.173
0.898 0.453 0.197
0.920 0.439 0.223
0.941 0.425 0.248
0.962 0.409 0.274
0.983 0.391 0.301
0.999 0.369 0.327
1.000 0.342 0.355
1.000 0.317 0.394
1.000 0.286 0.438
1.000 0.244 0.492
1.000 0.177 0.560
1.000 0.099 0.651
1.000 0.202 0.774
0.183 0.448 0.161
0.192 0.453 0.170
0.201 0.458 0.180
0.210 0.465 0.189
0.221 0.472 0.200
0.231 0.480 0.211
0.243 0.489 0.223
0.256 0.500 0.235
0.268 0.513 0.247
0.281 0.528 0.259
0.294 0.544 0.270
0.306 0.562 0.279
0.334 0.579 0.269
0.394 0.587 0.222
0.456 0.593 0.172
0.521 0.594 0.127
0.585 0.592 0.098
0.645 0.585 0.098
0.704 0.577 0.098
0.764 0.566 0.098
0.823 0.549 0.101
0.871 0.526 0.148
0.904 0.505 0.188
0.925 0.492 0.214
0.945 0.478 0.241
0.965 0.462 0.268
0.985 0.445 0.295
1.000 0.423 0.319
1.000 0.396 0.345
1.000 0.364 0.377
1.000 0.334 0.423
1.000 0.296 0.478
1.000 0.239 0.548
1.000 0.134 0.639
1.000 0.229 0.768
0.204 0.480 0.178
0.212 0.485 0.187
0.220 0.490 0.196
0.229 0.496 0.206
0.239 0.503 0.216
0.249 0.510 0.227
0.260 0.519 0.238
0.272 0.529 0.250
0.284 0.541 0.262
0.297 0.554 0.274
0.309 0.569 0.286
0.322 0.586 0.296
0.333 0.604 0.305
0.365 0.619 0.290
0.424 0.627 0.244
0.486 0.632 0.197
0.550 0.634 0.152
0.614 0.633 0.113
0.676 0.627 0.098
0.733 0.619 0.098
0.791 0.608 0.098
0.845 0.592 0.109
0.892 0.569 0.155
0.929 0.543 0.206
0.949 0.529 0.234
0.968 0.514 0.261
0.989 0.496 0.285
1.000 0.475 0.310
1.000 0.449 0.337
1.000 0.417 0.367
1.000 0.380 0.406
1.000 0.344 0.462
1.000 0.293 0.534
1.000 0.205 0.628
1.000 0.254 0.761
0.224 0.512 0.196
0.232 0.517 0.204
0.240 0.522 0.213
0.248 0.528 0.222
0.257 0.533 0.232
0.267 0.540 0.242
0.277 0.549 0.254
0.289 0.558 0.265
0.301 0.569 0.277
0.313 0.581 0.289
0.325 0.595 0.300
0.337 0.610 0.311
0.349 0.626 0.321
0.360 0.643 0.329
0.396 0.657 0.310
0.454 0.664 0.267
0.515 0.669 0.221
0.579 0.671 0.176
0.643 0.670 0.136
0.705 0.666 0.107
0.763 0.659 0.098
0.818 0.648 0.098
0.869 0.632 0.121
0.913 0.610 0.168
0.953 0.580 0.226
0.973 0.564 0.250
0.992 0.546 0.274
1.000 0.525 0.300
1.000 0.501 0.328
1.000 0.471 0.358
1.000 0.432 0.394
1.000 0.390 0.446
1.000 0.342 0.519
1.000 0.269 0.618
1.000 0.276 0.752
0.244 0.544 0.213
0.251 0.548 0.222
0.259 0.553 0.230
0.266 0.558 0.239
0.275 0.564 0.248
0.284 0.570 0.258
0.294 0.578 0.269
0.305 0.587 0.280
0.316 0.597 0.292
0.328 0.608 0.303
0.340 0.620 0.315
0.352 0.634 0.326
0.364 0.648 0.336
0.375 0.664 0.345
0.386 0.681 0.353
0.425 0.693 0.330
0.483 0.700 0.288
0.545 0.705 0.244
0.608 0.706 0.201
0.671 0.706 0.159
0.732 0.702 0.129
0.790 0.696 0.111
0.843 0.685 0.115
0.892 0.669 0.137
0.936 0.646 0.178
0.977 0.613 0.236
0.996 0.596 0.262
1.000 0.576 0.289
1.000 0.552 0.318
1.000 0.523 0.350
1.000 0.487 0.386
1.000 0.437 0.429
1.000 0.389 0.504
1.000 0.337 0.610
1.000 0.318 0.748
0.264 0.576 0.231
0.271 0.580 0.239
0.278 0.584 0.247
0.285 0.589 0.255
0.293 0.594 0.264
0.302 0.600 0.274
0.311 0.607 0.284
0.321 0.615 0.295
0.332 0.624 0.306
0.344 0.634 0.317
0.355 0.646 0.329
0.367 0.658 0.340
0.379 0.671 0.350
0.390 0.685 0.360
0.402 0.700 0.368
0.412 0.716 0.376
0.455 0.727 0.350
0.513 0.734 0.310
0.574 0.738 0.267
0.637 0.740 0.225
0.700 0.740 0.183
0.760 0.736 0.152
0.817 0.730 0.128
0.870 0.720 0.124
0.918 0.704 0.139
0.961 0.680 0.185
0.999 0.645 0.248
1.000 0.626 0.277
1.000 0.603 0.307
1.000 0.575 0.340
1.000 0.541 0.377
1.000 0.493 0.421
1.000 0.435 0.487
1.000 0.395 0.603
1.000 0.364 0.744
0.283 0.607 0.249
0.290 0.611 0.257
0.296 0.615 0.264
0.303 0.619 0.272
0.310 0.624 0.280
0.319 0.630 0.289
0.328 0.636 0.299
0.337 0.644 0.309
0.348 0.652 0.320
0.359 0.661 0.332
0.371 0.671 0.343
0.382 0.682 0.354
0.394 0.694 0.364
0.405 0.707 0.374
0.417 0.721 0.383
0.428 0.735 0.391
0.439 0.750 0.399
0.484 0.760 0.371
0.542 0.766 0.331
0.604 0.770 0.290
0.667 0.772 0.247
0.729 0.772 0.201
0.789 0.770 0.162
0.846 0.763 0.133
0.898 0.753 0.127
0.945 0.736 0.144
0.986 0.711 0.196
1.000 0.675 0.263
1.000 0.653 0.295
1.000 0.627 0.329
1.000 0.594 0.368
1.000 0.549 0.413
1.000 0.487 0.472
1.000 0.451 0.595
1.000 0.412 0.740
0.303 0.638 0.268
0.309 0.641 0.275
0.315 0.645 0.282
0.321 0.649 0.289
0.328 0.654 0.297
0.336 0.659 0.305
0.345 0.665 0.315
0.354 0.672 0.325
0.364 0.679 0.335
0.375 0.688 0.346
0.386 0.697 0.357
0.398 0.707 0.368
0.409 0.718 0.378
0.421 0.729 0.388
0.432 0.741 0.398
0.443 0.754 0.407
0.454 0.768 0.415
0.465 0.782 0.422
0.513 0.791 0.391
0.572 0.797 0.350
0.634 0.802 0.306
0.697 0.804 0.260
0.760 0.805 0.211
0.820 0.802 0.169
0.875 0.796 0.136
0.926 0.785 0.130
0.971 0.767 0.152
1.000 0.739 0.212
1.000 0.702 0.281
1.000 0.678 0.318
1.000 0.646 0.357
1.000 0.605 0.404
1.000 0.544 0.462
1.000 0.509 0.590
1.000 0.461 0.735
0.323 0.669 0.286
0.328 0.672 0.293
0.334 0.675 0.299
0.340 0.679 0.306
0.347 0.684 0.314
0.354 0.688 0.322
0.363 0.693 0.330
0.372 0.700 0.340
0.381 0.707 0.350
0.392 0.714 0.360
0.402 0.723 0.371
0.414 0.731 0.382
0.425 0.741 0.392
0.436 0.751 0.403
0.448 0.762 0.412
0.458 0.774 0.422
0.469 0.786 0.430
0.480 0.800 0.437
0.490 0.814 0.443
0.541 0.822 0.408
0.601 0.828 0.366
0.664 0.833 0.320
0.729 0.835 0.273
0.791 0.835 0.220
0.851 0.833 0.175
0.905 0.826 0.139
0.955 0.814 0.134
0.998 0.795 0.164
1.000 0.763 0.238
1.000 0.727 0.304
1.000 0.698 0.346
1.000 0.659 0.394
1.000 0.603 0.453
1.000 0.566 0.584
1.000 0.511 0.730
0.343 0.700 0.305
0.348 0.702 0.311
0.354 0.706 0.317
0.359 0.709 0.324
0.366 0.713 0.331
0.372 0.717 0.338
0.381 0.722 0.347
0.389 0.727 0.356
0.399 0.734 0.365
0.409 0.741 0.376
0.419 0.748 0.386
0.430 0.756 0.397
0.441 0.765 0.406
0.452 0.775 0.416
0.462 0.785 0.425
0.473 0.795 0.434
0.483 0.807 0.442
0.494 0.819 0.450
0.505 0.831 0.458
0.515 0.845 0.464
0.569 0.853 0.427
0.631 0.859 0.382
0.695 0.863 0.335
0.761 0.865 0.284
0.823 0.865 0.228
0.882 0.862 0.179
0.936 0.855 0.142
0.983 0.842 0.140
1.000 0.820 0.184
1.000 0.782 0.275
1.000 0.748 0.333
1.000 0.712 0.382
1.000 0.661 0.443
1.000 0.623 0.578
1.000 0.562 0.725
0.364 0.730 0.325
0.369 0.733 0.330
0.374 0.736 0.336
0.379 0.739 0.342
0.385 0.742 0.349
0.392 0.746 0.356
0.400 0.750 0.364
0.408 0.755 0.372
0.416 0.761 0.380
0.425 0.768 0.390
0.435 0.775 0.399
0.445 0.782 0.409
0.456 0.790 0.418
0.466 0.799 0.428
0.477 0.808 0.437
0.488 0.818 0.446
0.499 0.828 0.455
0.509 0.838 0.464
0.520 0.850 0.472
0.531 0.862 0.479
0.542 0.874 0.486
0.598 0.882 0.446
0.662 0.888 0.400
0.727 0.892 0.349
0.793 0.894 0.295
0.856 0.894 0.236
0.914 0.891 0.181
0.966 0.883 0.144
1.000 0.868 0.148
1.000 0.842 0.215
1.000 0.797 0.317
1.000 0.764 0.370
1.000 0.718 0.432
1.000 0.680 0.572
1.000 0.618 0.722
0.384 0.761 0.343
0.389 0.764 0.348
0.394 0.766 0.353
0.399 0.769 0.358
0.404 0.772 0.364
0.410 0.776 0.370
0.417 0.780 0.377
0.425 0.785 0.385
0.433 0.790 0.394
0.442 0.796 0.403
0.452 0.802 0.412
0.462 0.809 0.421
0.472 0.816 0.431
0.483 0.824 0.441
0.493 0.832 0.450
0.504 0.840 0.459
0.515 0.849 0.468
0.525 0.859 0.477
0.536 0.869 0.486
0.547 0.880 0.495
0.558 0.891 0.502
0.570 0.903 0.509
0.627 0.910 0.467
0.693 0.916 0.418
0.760 0.920 0.364
0.827 0.922 0.306
0.889 0.921 0.241
0.946 0.918 0.181
0.997 0.909 0.147
1.000 0.891 0.163
1.000 0.858 0.262
1.000 0.815 0.355
1.000 0.773 0.420
1.000 0.736 0.565
1.000 0.675 0.719
0.404 0.794 0.359
0.409 0.796 0.364
0.413 0.798 0.369
0.418 0.801 0.374
0.423 0.804 0.379
0.429 0.807 0.385
0.435 0.811 0.392
0.443 0.815 0.400
0.452 0.819 0.408
0.460 0.825 0.417
0.469 0.830 0.426
0.480 0.836 0.435
0.490 0.843 0.445
0.499 0.850 0.454
0.510 0.856 0.464
0.520 0.864 0.473
0.532 0.872 0.482
0.542 0.880 0.492
0.553 0.889 0.501
0.564 0.898 0.510
0.575 0.909 0.519
0.587 0.919 0.526
0.599 0.931 0.533
0.657 0.938 0.491
0.725 0.943 0.437
0.794 0.947 0.378
0.861 0.949 0.315
0.923 0.948 0.245
0.979 0.943 0.178
1.000 0.933 0.152
1.000 0.911 0.200
1.000 0.864 0.333
1.000 0.825 0.406
1.000 0.790 0.557
1.000 0.732 0.716
0.426 0.826 0.376
0.430 0.828 0.381
0.435 0.830 0.385
0.439 0.833 0.390
0.444 0.835 0.396
0.450 0.838 0.402
0.456 0.842 0.408
0.463 0.845 0.415
0.472 0.849 0.423
0.480 0.854 0.432
0.489 0.859 0.441
0.498 0.864 0.450
0.509 0.870 0.459
0.519 0.876 0.469
0.529 0.882 0.478
0.539 0.888 0.488
0.550 0.895 0.498
0.561 0.902 0.507
0.572 0.910 0.516
0.582 0.918 0.526
0.594 0.927 0.535
0.605 0.936 0.544
0.617 0.946 0.552
0.629 0.957 0.560
0.688 0.964 0.517
