ImageProcessor/LUTFiles/PRESET_Fujicolor_SuperHR100.cube
#Created by: Pixelmator Pro
#Color profile: "sRGB IEC61966-2.1"
TITLE "PRESET_Fujicolor_SuperHR100"
#Data domain
#LUT size
LUT_3D_SIZE 5
DOMAIN_MIN 0.000000 0.000000 0.000000
DOMAIN_MAX 0.823529 0.823529 0.823529
0.066 0.099 0.098
0.066 0.099 0.098
0.392 0.099 0.202
0.664 0.099 0.321
0.918 0.099 0.467
0.083 0.221 0.098
0.189 0.325 0.100
0.616 0.266 0.098
0.840 0.162 0.229
0.996 0.099 0.426
0.204 0.480 0.178
0.272 0.529 0.250
0.424 0.627 0.244
0.845 0.592 0.109
1.000 0.449 0.337
0.343 0.700 0.305
0.389 0.727 0.356
0.462 0.785 0.425
0.631 0.859 0.382
1.000 0.820 0.184
0.507 0.927 0.440
0.540 0.939 0.475
0.598 0.961 0.534
0.669 0.994 0.603
0.861 1.000 0.539
0.066 0.099 0.098
0.155 0.099 0.219
0.416 0.099 0.329
0.671 0.099 0.420
0.920 0.099 0.546
0.066 0.264 0.226
0.245 0.288 0.276
0.568 0.252 0.339
0.808 0.197 0.415
0.992 0.111 0.537
0.204 0.495 0.267
0.327 0.511 0.332
0.447 0.607 0.380
0.865 0.554 0.360
1.000 0.437 0.466
0.379 0.692 0.360
0.427 0.717 0.411
0.503 0.771 0.483
0.646 0.850 0.475
1.000 0.799 0.385
0.534 0.924 0.480
0.568 0.935 0.515
0.626 0.957 0.576
0.698 0.989 0.647
0.868 1.000 0.611
0.066 0.177 0.306
0.088 0.099 0.529
0.428 0.099 0.550
0.680 0.099 0.597
0.919 0.099 0.679
0.066 0.327 0.419
0.123 0.332 0.535
0.477 0.290 0.581
0.747 0.254 0.618
0.971 0.182 0.697
0.066 0.535 0.455
0.198 0.561 0.483
0.504 0.550 0.532
0.791 0.521 0.579
0.999 0.455 0.669
0.299 0.733 0.470
0.413 0.733 0.496
0.563 0.745 0.568
0.668 0.822 0.619
1.000 0.765 0.605
0.534 0.930 0.545
0.610 0.929 0.579
0.670 0.948 0.643
0.742 0.978 0.718
0.880 1.000 0.725
0.066 0.289 0.520
0.066 0.266 0.664
0.360 0.149 0.801
0.667 0.109 0.817
0.923 0.099 0.844
0.066 0.396 0.598
0.066 0.395 0.711
0.373 0.345 0.812
0.687 0.314 0.820
0.948 0.251 0.855
0.066 0.567 0.654
0.066 0.594 0.728
0.402 0.584 0.775
0.709 0.542 0.803
0.965 0.484 0.842
0.066 0.766 0.657
0.180 0.786 0.681
0.442 0.790 0.709
0.727 0.775 0.754
0.991 0.735 0.807
0.435 0.955 0.668
0.524 0.955 0.685
0.667 0.954 0.722
0.791 0.963 0.791
0.893 1.000 0.845
0.066 0.423 0.774
0.066 0.416 0.848
0.104 0.325 0.991
0.543 0.272 1.000
0.896 0.191 1.000
0.066 0.499 0.814
0.066 0.498 0.876
0.157 0.459 0.985
0.551 0.403 1.000
0.905 0.344 1.000
0.066 0.628 0.855
0.066 0.640 0.905
0.215 0.643 0.978
0.558 0.597 1.000
0.918 0.540 1.000
0.066 0.786 0.881
0.066 0.807 0.918
0.280 0.823 0.960
0.585 0.812 0.987
0.929 0.760 1.000
0.066 0.976 0.882
0.103 0.993 0.901
0.376 0.995 0.914
0.637 0.995 0.931
0.939 0.982 0.965
