ImageProcessor/LUTFiles/PRESET_Fujicolor_SuperHR100.cube
#Created by: Pixelmator Pro
#Color profile: "sRGB IEC61966-2.1"
TITLE "PRESET_Fujicolor_SuperHR100"
#Data domain
#LUT size
LUT_3D_SIZE 7
DOMAIN_MIN 0.000000 0.000000 0.000000
DOMAIN_MAX 0.882353 0.882353 0.882353
0.066 0.099 0.098
0.066 0.099 0.098
0.214 0.099 0.134
0.432 0.099 0.219
0.626 0.099 0.304
0.813 0.099 0.395
0.985 0.099 0.533
0.070 0.131 0.098
0.123 0.220 0.098
0.411 0.203 0.098
0.630 0.118 0.130
0.771 0.099 0.253
0.896 0.099 0.368
1.000 0.099 0.519
0.122 0.345 0.115
0.176 0.387 0.165
0.297 0.461 0.154
0.616 0.444 0.098
0.837 0.369 0.170
0.957 0.289 0.286
1.000 0.176 0.466
0.224 0.512 0.196
0.267 0.540 0.242
0.325 0.595 0.300
0.454 0.664 0.267
0.763 0.659 0.098
0.973 0.564 0.250
1.000 0.432 0.394
0.323 0.669 0.286
0.354 0.688 0.322
0.402 0.723 0.371
0.458 0.774 0.422
0.601 0.828 0.366
0.905 0.826 0.139
1.000 0.698 0.346
0.426 0.826 0.376
0.450 0.838 0.402
0.489 0.859 0.441
0.539 0.888 0.488
0.594 0.927 0.535
0.758 0.969 0.458
1.000 0.954 0.163
0.584 0.997 0.502
0.603 1.000 0.522
0.632 1.000 0.554
0.671 1.000 0.596
0.716 1.000 0.644
0.771 1.000 0.700
0.933 1.000 0.618
0.066 0.099 0.098
0.068 0.099 0.102
0.255 0.099 0.217
0.446 0.099 0.299
0.633 0.099 0.371
0.816 0.099 0.452
0.986 0.099 0.578
0.066 0.172 0.152
0.160 0.201 0.191
0.399 0.178 0.240
0.596 0.140 0.299
0.765 0.099 0.362
0.895 0.099 0.443
1.000 0.099 0.572
0.117 0.360 0.183
0.225 0.375 0.236
0.318 0.448 0.276
0.670 0.413 0.251
0.825 0.357 0.310
0.944 0.299 0.398
1.000 0.196 0.538
0.254 0.510 0.248
0.301 0.532 0.295
0.362 0.581 0.355
0.468 0.654 0.353
0.780 0.645 0.249
0.966 0.555 0.356
1.000 0.430 0.474
0.348 0.664 0.326
0.380 0.682 0.360
0.429 0.714 0.410
0.487 0.764 0.462
0.612 0.823 0.429
0.914 0.818 0.270
1.000 0.691 0.427
0.445 0.823 0.405
0.470 0.835 0.431
0.510 0.855 0.471
0.561 0.884 0.520
0.617 0.922 0.570
0.765 0.967 0.511
1.000 0.949 0.293
0.598 0.995 0.525
0.618 1.000 0.545
0.647 1.000 0.578
0.686 1.000 0.620
0.730 1.000 0.668
0.785 1.000 0.724
0.936 1.000 0.658
0.066 0.117 0.154
0.083 0.099 0.325
0.283 0.099 0.373
0.462 0.099 0.423
0.637 0.099 0.474
0.817 0.099 0.541
0.987 0.099 0.650
0.066 0.229 0.287
0.082 0.237 0.384
0.339 0.205 0.422
0.543 0.176 0.453
0.728 0.141 0.495
0.890 0.099 0.555
1.000 0.099 0.655
0.066 0.388 0.332
0.126 0.412 0.354
0.363 0.407 0.392
0.595 0.387 0.426
0.780 0.359 0.474
0.922 0.322 0.536
1.000 0.227 0.642
0.178 0.546 0.344
0.290 0.547 0.366
0.409 0.557 0.421
0.487 0.626 0.462
0.803 0.606 0.428
0.952 0.537 0.487
1.000 0.440 0.598
0.328 0.682 0.386
0.399 0.680 0.412
0.468 0.699 0.464
0.529 0.745 0.522
0.627 0.809 0.521
0.927 0.800 0.419
1.000 0.679 0.543
0.462 0.823 0.448
0.500 0.829 0.474
0.542 0.847 0.516
0.595 0.875 0.569
0.652 0.912 0.622
0.776 0.960 0.593
1.000 0.938 0.444
0.623 0.993 0.562
0.641 0.997 0.582
0.671 1.000 0.615
0.709 1.000 0.657
0.753 1.000 0.705
0.806 1.000 0.760
0.941 1.000 0.718
0.066 0.193 0.338
0.066 0.179 0.455
0.253 0.099 0.577
0.462 0.099 0.592
0.645 0.099 0.621
0.819 0.099 0.663
0.986 0.099 0.740
0.066 0.288 0.418
0.066 0.290 0.508
0.266 0.246 0.607
0.498 0.219 0.620
0.694 0.191 0.645
0.865 0.154 0.682
1.000 0.099 0.755
0.066 0.418 0.472
0.066 0.436 0.529
0.288 0.432 0.581
0.520 0.404 0.607
0.718 0.380 0.631
0.886 0.351 0.672
1.000 0.265 0.754
0.066 0.570 0.484
0.115 0.593 0.503
0.325 0.597 0.528
0.537 0.584 0.565
0.746 0.565 0.592
0.918 0.531 0.645
1.000 0.458 0.731
0.238 0.715 0.488
0.328 0.716 0.502
0.451 0.715 0.530
0.575 0.722 0.587
0.643 0.779 0.630
0.942 0.756 0.601
1.000 0.661 0.679
0.409 0.847 0.519
0.468 0.847 0.535
0.560 0.845 0.568
0.633 0.862 0.625
0.693 0.896 0.684
0.788 0.948 0.691
1.000 0.916 0.622
0.628 0.995 0.607
0.668 0.994 0.626
0.699 1.000 0.659
0.737 1.000 0.702
0.780 1.000 0.749
0.832 1.000 0.804
0.946 1.000 0.790
0.066 0.273 0.488
0.066 0.266 0.578
0.131 0.153 0.763
0.422 0.127 0.772
0.634 0.099 0.786
0.821 0.099 0.801
0.987 0.099 0.839
0.066 0.347 0.548
0.066 0.347 0.624
0.157 0.305 0.758
0.435 0.269 0.781
0.651 0.245 0.790
0.842 0.215 0.810
1.000 0.110 0.857
0.066 0.455 0.602
0.066 0.465 0.661
0.202 0.462 0.741
0.447 0.432 0.778
0.668 0.409 0.784
0.858 0.378 0.805
1.000 0.308 0.853
0.066 0.589 0.630
0.066 0.610 0.670
0.254 0.617 0.707
0.464 0.607 0.740
0.681 0.577 0.762
0.873 0.543 0.787
1.000 0.480 0.845
0.066 0.735 0.628
0.113 0.754 0.646
0.299 0.758 0.663
0.491 0.758 0.688
0.696 0.744 0.723
0.895 0.722 0.750
1.000 0.666 0.821
0.302 0.873 0.626
0.376 0.874 0.637
0.486 0.874 0.656
0.621 0.872 0.689
0.735 0.878 0.745
0.801 0.926 0.789
1.000 0.891 0.775
0.575 1.000 0.676
0.619 1.000 0.688
0.687 1.000 0.710
0.766 1.000 0.747
0.809 1.000 0.795
0.860 1.000 0.850
0.953 1.000 0.862
0.066 0.359 0.656
0.066 0.355 0.721
0.066 0.310 0.848
0.318 0.221 0.922
0.569 0.198 0.924
0.793 0.166 0.932
0.989 0.099 0.953
0.066 0.416 0.697
0.066 0.415 0.754
0.066 0.389 0.864
0.321 0.333 0.927
0.578 0.313 0.927
0.803 0.280 0.934
0.999 0.190 0.960
0.066 0.505 0.740
0.066 0.511 0.788
0.066 0.508 0.879
0.344 0.481 0.913
0.589 0.449 0.927
0.817 0.416 0.935
1.000 0.353 0.959
0.066 0.620 0.771
0.066 0.633 0.809
0.130 0.647 0.868
0.372 0.637 0.896
0.597 0.605 0.921
0.830 0.571 0.929
1.000 0.512 0.953
0.066 0.747 0.786
0.066 0.764 0.814
0.191 0.779 0.847
0.400 0.778 0.869
0.610 0.768 0.894
0.839 0.735 0.912
1.000 0.681 0.939
0.066 0.887 0.781
0.066 0.905 0.799
0.264 0.908 0.810
0.440 0.910 0.825
0.640 0.909 0.845
0.850 0.896 0.877
1.000 0.867 0.911
0.465 1.000 0.784
0.519 1.000 0.791
0.603 1.000 0.804
0.705 1.000 0.823
0.808 1.000 0.850
0.892 1.000 0.899
0.960 1.000 0.939
0.066 0.481 0.860
0.066 0.479 0.894
0.066 0.465 0.951
0.066 0.403 1.000
0.385 0.334 1.000
0.696 0.299 1.000
0.966 0.216 1.000
0.066 0.523 0.879
0.066 0.522 0.909
0.066 0.514 0.961
0.066 0.469 1.000
0.384 0.410 1.000
0.702 0.378 1.000
0.970 0.313 1.000
0.066 0.591 0.903
0.066 0.594 0.929
0.066 0.593 0.975
0.085 0.574 1.000
0.399 0.534 1.000
0.709 0.491 1.000
0.976 0.433 1.000
0.066 0.680 0.924
0.066 0.686 0.947
0.066 0.696 0.987
0.140 0.699 1.000
0.422 0.674 1.000
0.715 0.629 1.000
0.982 0.573 1.000
0.066 0.780 0.942
0.066 0.789 0.961
0.066 0.806 0.995
0.201 0.819 1.000
0.451 0.808 1.000
0.720 0.776 1.000
0.987 0.724 1.000
0.066 0.895 0.955
0.066 0.906 0.970
0.066 0.926 0.997
0.273 0.933 1.000
0.489 0.931 1.000
0.737 0.921 1.000
0.991 0.882 1.000
0.066 1.000 0.954
0.066 1.000 0.964
0.211 1.000 0.973
0.390 1.000 0.979
0.563 1.000 0.987
0.777 1.000 0.997
0.995 1.000 1.000
